X: 5
T: Whiskey Before Breakfast
R: reel
M: 4/4
L: 1/8
K: Dmaj
FDFG A2 A2 | ABAG FEDF | G2 BG F2AF | EDEF GFEF |EDFG A2 A2 | ABAG FEDF | G2 BG F2 AF | EDEF D4 :|


Tune 602	Setting 28865

